X:1
T:Title
%%score { ( 1 3 ) | 2 }
L:1/8
Q:1/4=100
M:4/4
K:D
V:1 treble nm="Grand Piano"
V:3 treble 
V:2 bass 
V:1
 F2 F2 F2 E2 | D>[CE] [DF]>[EG] [FA]4 | B2 B2 d2 B2 | [FA]>[GB] [FA]>[DF] [CE]4 | F2 F2 F2 E2 | %5
w: J.~Howard~Entwisle * * *|||||
 D>[CE] [DF]>[EG] [FA]2 [FA]2 | [GB]2 [GB]2 [Gc]>[Gc] [GB]>[Gc] | [Fd]6 z2 | %8
w: |||
 [Ge]3 [Ge] [Fd]2 [Ec]2 | [Fd]>[Fd] [Ac]>[GB] [FA]4 | [GB]2 [GB]2 [GB]>[FA] [FA]>[DF] | %11
w: |||
 [EG]2 [DF]2 [CE]4 | F2 F2 F2 E2 | D>[CE] [DF]>[EG] [FA]2 [FA]2 | [GB]2 [GB]2 [Gc]>[Gc] [Gd]>[Ge] | %15
w: ||||
 [Fd]6 z2 | [FA]6 z2 | [Gd]>[Gc] [Gc]>[GB] [Gc]4 | z2 F2 G2 e2 | [Ge]>[Fd] [Fd]>[Ec] [Fd]4 | %20
w: |||||
 F2 G2 A2 [Af]2 | e>d d>B [FA]2 D>E | F2 A>G [A,DF]2[K:bass] [G,CE]>[G,CE] | [F,D]6 z2 |] %24
w: ||||
V:2
 [D,A,D]2 [D,A,D]2 [D,A,D]2 [D,G,A,]2 | [D,F,A,]>[A,,A,] [D,A,]>[D,A,] [D,D]4 | %2
 [G,DG]2 [G,DG]2 [G,B,G]2 [G,DG]2 | [D,D]>[D,D] [D,D]>[D,A,] [A,,A,]4 | %4
 [D,A,D]2 [D,A,D]2 [D,A,D]2 [D,G,A,]2 | [D,F,A,]>[A,,A,] [D,A,]>[D,A,] [D,D]2 [D,D]2 | %6
 [G,D]2 [G,D]2 [E,A,]>[E,A,] [A,,A,]>[A,,A,] | [D,A,]6 z2 | [A,,A,]3 [A,,A,] [A,,A,]2 [A,,A,]2 | %9
 [D,A,]>[D,A,] [D,D]>[D,D] [D,D]4 | [G,D]2 [G,D]2 [D,D]>[D,D] [D,D]>[D,A,] | %11
 [C,A,]2 [D,A,]2 [A,,A,]4 | [D,A,D]2 [D,A,D]2 [D,A,D]2 [D,G,A,]2 | %13
 [D,F,A,]>[A,,A,] [D,A,]>[D,A,] [D,D]2 [D,D]2 | [G,D]2 [G,D]2 [E,A,]>[E,A,] [A,,A,]>[A,,A,] | %15
 [D,A,]6 z2 | [D,F,]2 D,2 D,2 [D,A,]2 | [E,A,]>[E,A,] [A,,A,]>[A,,A,] [A,,A,]4 | %18
 [A,CE]2 [A,D]2 [A,E]2 [A,G]2 | [A,,A,]>[A,,A,] [A,,A,]>[A,,A,] [D,A,]4 | %20
 [D,A,]2 [E,C]2 [F,D]2 [D,D]2 | %21
 [G,B,G]>[G,B,G] [G,B,G]>[G,DG][K:bass] [D,D]2 [F,A,]>[K:treble][G,B,D] | %22
 [A,D]2 [A,F]>[K:bass][A,E] A,,2 A,,>A,, | D,6 z2 |] %24
V:3
 x8 | x8 | x8 | x8 | x8 | x8 | x8 | x8 | x8 | x8 | x8 | x8 | x8 | x8 | x8 | x8 | z2 A,2 D2 [Fd]2 | %17
 x8 | A6 z2 | x8 | A4 z4 | x8 | x6[K:bass] x2 | x8 |] %24

